src/lib/packages/icons/src/assets/filled/arrow-back-square.svg

<svg width="24" height="24" viewBox="0 0 24 24" fill="none" xmlns="http://www.w3.org/2000/svg">
<path d="M17.625 3H6.375C4.125 3 3 4.125 3 6.375V17.625C3 19.875 4.125 21 6.375 21H17.625C19.875 21 21 19.875 21 17.625V6.375C21 4.125 19.875 3 17.625 3ZM14.25 15.752H9C8.586 15.752 8.25 15.416 8.25 15.002C8.25 14.588 8.586 14.252 9 14.252H14.25C15.077 14.252 15.75 13.579 15.75 12.752C15.75 11.925 15.077 11.252 14.25 11.252H9.31104L9.53101 11.4719C9.82401 11.7649 9.82401 12.24 9.53101 12.533C9.38501 12.679 9.19298 12.7529 9.00098 12.7529C8.80898 12.7529 8.61695 12.68 8.47095 12.533L6.97095 11.033C6.90195 10.964 6.84708 10.8811 6.80908 10.7891C6.73308 10.6061 6.73308 10.3991 6.80908 10.2161C6.84708 10.1241 6.90195 10.0409 6.97095 9.97192L8.47095 8.47192C8.76395 8.17892 9.23898 8.17892 9.53198 8.47192C9.82498 8.76492 9.82498 9.23996 9.53198 9.53296L9.31201 9.75293H14.251C15.905 9.75293 17.251 11.0989 17.251 12.7529C17.251 14.4069 15.904 15.752 14.25 15.752Z" fill="currentColor"/>
</svg>

<svg xmlns="http://www.w3.org/2000/svg" width="24" height="24" fill="none"><path fill="currentColor" d="M17.625 3H6.375C4.125 3 3 4.125 3 6.375v11.25C3 19.875 4.125 21 6.375 21h11.25C19.875 21 21 19.875 21 17.625V6.375C21 4.125 19.875 3 17.625 3ZM14.25 15.752H9a.75.75 0 0 1 0-1.5h5.25c.827 0 1.5-.673 1.5-1.5s-.673-1.5-1.5-1.5H9.311l.22.22a.75.75 0 0 1-1.06 1.061l-1.5-1.5a.748.748 0 0 1-.162-.817.75.75 0 0 1 .162-.244l1.5-1.5a.75.75 0 1 1 1.061 1.061l-.22.22h4.939c1.654 0 3 1.346 3 3s-1.347 2.999-3.001 2.999Z"/></svg>
